app/assets/images/books.svg

<svg enable-background="new 0 0 24 24" viewBox="0 0 24 24" xmlns="http://www.w3.org/2000/svg"><path d="m3.2 0h2.7c.7 0 1.3.6 1.3 1.3v17.7c0 .7-.6 1.3-1.3 1.3h-2.7c-.7 0-1.3-.6-1.3-1.3v-17.7c0-.7.6-1.3 1.3-1.3z"/><path d="m0 22.8v-.4c0-.6.5-1.2 1.2-1.2h21.7c.6 0 1.2.5 1.2 1.2v.4c0 .6-.5 1.2-1.2 1.2h-21.7c-.7 0-1.2-.5-1.2-1.2z"/><path d="m9.9 6.2h2.7c.7 0 1.3.6 1.3 1.3v11.5c0 .7-.6 1.3-1.3 1.3h-2.7c-.7 0-1.3-.6-1.3-1.3v-11.5c-.1-.7.5-1.3 1.3-1.3z"/><path d="m22.7 18.3-2.7-16.2c-.1-.7-.8-1.2-1.5-1.1l-2.6.4c-.7.1-1.2.8-1.1 1.5l2.7 16.2c.1.7.8 1.2 1.5 1.1l2.6-.4c.7-.1 1.2-.8 1.1-1.5z"/></svg>

<svg xmlns="http://www.w3.org/2000/svg" viewBox="0 0 24 24"><path d="M3.2 0h2.7c.7 0 1.3.6 1.3 1.3V19c0 .7-.6 1.3-1.3 1.3H3.2c-.7 0-1.3-.6-1.3-1.3V1.3C1.9.6 2.5 0 3.2 0M0 22.8v-.4c0-.6.5-1.2 1.2-1.2h21.7c.6 0 1.2.5 1.2 1.2v.4c0 .6-.5 1.2-1.2 1.2H1.2C.5 24 0 23.5 0 22.8M9.9 6.2h2.7c.7 0 1.3.6 1.3 1.3V19c0 .7-.6 1.3-1.3 1.3H9.9c-.7 0-1.3-.6-1.3-1.3V7.5c-.1-.7.5-1.3 1.3-1.3M22.7 18.3 20 2.1c-.1-.7-.8-1.2-1.5-1.1l-2.6.4c-.7.1-1.2.8-1.1 1.5l2.7 16.2c.1.7.8 1.2 1.5 1.1l2.6-.4c.7-.1 1.2-.8 1.1-1.5"/></svg>
